X: 279
T: My Heart's Full of Joy
R: air, jig
%S: s:4 b:16(4+4+4+4)
B: O'Neill's 1850 #279
O: J.O'Neill
Z: 1997 by John Chambers <jc@trillian.mit.edu>
Q: "Playful"
N: Typo: Missing dot in first bar. (Fixed.)
M: 6/8
L: 1/8
K:G
  (D/>G/) | B>cA GAB | {AB}c2B {B}A2d | G2{cd}e d<BA | GBc d2 ||
| (D/>G/) | B>cA GBd | g{ag}fe d2d | dcB ABA | G2(B/A/) G2 |]
|| d | g{ag}fg agf | gdB G2(B/>d/) | g{ag}fe dBc | d3 d2 ||
| (B/>d/) | g{ag}fe agf | gBd  g2e | dcB ABA | G2(B/A/) G2 |]
